locations/suedl-ringstr.svg

<?xml version="1.0" encoding="UTF-8" standalone="no"?>
<svg
   xmlns:dc="http://purl.org/dc/elements/1.1/"
   xmlns:cc="http://creativecommons.org/ns#"
   xmlns:rdf="http://www.w3.org/1999/02/22-rdf-syntax-ns#"
   xmlns:svg="http://www.w3.org/2000/svg"
   xmlns="http://www.w3.org/2000/svg"
   xmlns:sodipodi="http://sodipodi.sourceforge.net/DTD/sodipodi-0.dtd"
   xmlns:inkscape="http://www.inkscape.org/namespaces/inkscape"
   version="1.1"
   width="887.9595237581935mm"
   height="378.49575472024424mm"
   viewBox="0 0 887.9595237581935 378.49575472024424"
   id="svg12"
   sodipodi:docname="suedl-ringstr.svg"
   inkscape:version="1.0.2-2 (e86c870879, 2021-01-15)">
  <metadata
     id="metadata18">
    <rdf:RDF>
      <cc:Work
         rdf:about="">
        <dc:format>image/svg+xml</dc:format>
        <dc:type
           rdf:resource="http://purl.org/dc/dcmitype/StillImage" />
      </cc:Work>
    </rdf:RDF>
  </metadata>
  <defs
     id="defs16" />
  <sodipodi:namedview
     pagecolor="#ffffff"
     bordercolor="#666666"
     borderopacity="1"
     objecttolerance="10"
     gridtolerance="10"
     guidetolerance="10"
     inkscape:pageopacity="0"
     inkscape:pageshadow="2"
     inkscape:window-width="1920"
     inkscape:window-height="1017"
     id="namedview14"
     showgrid="false"
     inkscape:zoom="0.68651777"
     inkscape:cx="2278.4443"
     inkscape:cy="495.19682"
     inkscape:window-x="-8"
     inkscape:window-y="-8"
     inkscape:window-maximized="1"
     inkscape:current-layer="svg12" />
  <g
     id="g10">
    <path
       d="m 601.94317,125.46813 36.8566,3.88862 -1.04055,6.37309 -35.03396,69.53566 -3.4445,3.78546 -48.73804,32.42794 -7.80401,4.34063 -47.35023,23.93096 -1.15659,-2.60373 -23.67254,12.15265 -8.5645,-15.85068 0.9725,-11.60961 -2.32452,-6.08018 18.12539,-6.96827 -0.77914,-2.3592 33.50333,-14.15023 18.46588,-9.59119 18.16,-13.95164 21.92721,-21.7316 23.50395,-25.24345 6.24437,-9.18369 0.0132,-3.80349 z m 180.65545,163.89395 -39.49595,-5.47666 -76.79827,-14.97114 5.82419,-22.3963 43.12351,6.17757 36.89427,6.88168 0.11349,-0.87436 6.25004,0.91706 -0.10545,1.49774 27.43184,3.57462 z m -426.97175,-60.07525 -16.00606,-2.78534 -22.67091,-6.81394 -0.4925,0.50518 -11.39704,-3.34379 -15.99155,-1.66308 -15.75988,-3.03773 -16.27507,-4.27799 -10.90785,-4.09821 0.3224,-3.99456 -6.35711,0.45661 -9.41742,-4.61632 2.12227,-9.50469 -4.25915,-1.3164 2.96955,-11.51088 -7.12992,-1.40383 -1.77719,7.25563 -20.27516,-4.84939 -47.13465,-26.69678 0.83267,-3.1283 -11.02954,-3.84703 3.73897,-9.89983 4.01443,-7.90823 -14.49815,-1.93144 -3.88786,17.63312 -14.01049,-2.81063 -13.70607,-8.17663 -11.750745,-11.3195 -0.666199,-12.83535 -2.614811,0.40811 -0.960368,12.48241 -1.226358,1.63704 23.211401,19.5253 19.08956,9.60304 -9.18187,32.66586 0.4572,15.95555 -10.21586,10.73227 -14.486578,-1.0586 0.07767,-3.61729 -18.509271,-3.37551 -0.474622,1.87666 -64.044697,-12.63395 -0.197484,3.99295 L 1.3815237,188.12441 0,196.99604 l 10.757286,2.1045 6.55172,4.90265 95.924044,17.58141 5.76906,2.29427 1.80808,4.71507 2.24114,28.40228 18.57052,-1.48841 -2.81627,-34.25568 27.54412,-2.22845 4.62364,0.56342 51.20998,23.52652 0.7436,-0.38375 40.03777,18.3099 63.9103,21.61693 0.49088,-0.62986 11.29965,5.46499 27.30873,8.49973 55.89078,9.37672 0.46504,-2.6247 8.50833,1.88504 8.14863,3.01199 5.80599,5.16222 4.83066,6.92064 2.36811,9.44649 1.71693,7.33503 -1.98617,0.7739 4.52632,41.21686 16.69103,-2.08645 -2.73501,-28.14664 34.25223,-4.43343 -1.23566,-8.71297 -33.99795,4.80425 -4.2804,-31.86761 16.1051,-8.81261 -0.78398,-2.73324 68.66864,-34.80608 13.65879,23.89044 85.1634,25.08706 -12.4029,44.3036 9.13349,2.00199 12.45524,-49.91571 8.28912,-34.39924 76.8127,16.09324 2.48038,-1.15426 32.74213,4.19198 -0.63109,9.11117 4.87782,0.93476 0.0804,6.23392 -1.59432,2.14042 -2.15788,16.48809 9.74756,1.24613 0.40218,-36.54204 1.22653,-1.63688 -0.0672,-25.2875 24.31854,-0.0893 7.47175,-1.09379 7.21263,-1.83864 31.49696,-14.99517 3.49122,-0.16963 11.25152,11.45227 13.56769,-12.14564 -58.52553,-78.3062 16.59384,-9.69072 -3.97957,-8.67772 7.1496,-16.4276 -23.27295,4.53932 -15.22227,-0.0534 -0.0804,-6.23392 -4.11502,0.17769 -0.30513,5.36599 -67.47401,-7.73497 0.88053,-9.11439 -8.24293,-0.64195 -1.00688,8.99132 -17.615,-1.76809 2.42417,-24.84638 -12.61072,-0.71029 -1.68852,23.83932 -23.35981,-2.19269 -2.04103,-3.46524 -0.92153,-3.72909 -14.62758,-2.30525 -1.90342,-2.46943 8.02196,-74.424194 2.87244,0.212338 L 672.54748,8.4618928 664.7921,6.9408631 664.95946,0.57904808 651.85111,0 l 0.1788,13.839296 -11.63351,103.899834 -20.10678,-1.48624 -4.62368,-0.56379 -14.13184,-2.5609 1.62395,-9.49811 -5.63457,-1.54832 -2.51168,8.38728 -4.93506,4.30351 -11.46702,0.89632 -0.12534,9.60345 16.35308,0.66167 -0.83113,12.91709 -1.05098,5.56269 -2.31375,4.39436 -6.03355,6.18819 -5.45173,2.9385 1.15173,2.22971 -15.88737,16.04205 -16.42176,13.30563 -0.0957,2.24582 -12.20939,11.00663 -12.98201,9.14617 -12.51849,6.39682 -23.58034,9.6574 -13.782,5.16626 -14.28418,4.9234 -1.39318,-1.60307 -3.09201,-17.16847 -11.30326,3.88726 3.58294,16.53862 -10.44617,2.6292 -32.4657,-2.07364 -16.97554,-4.84658 z m 53.74471,17.0111 26.09243,1.28327 10.21121,-1.50386 4.40728,22.38882 -1.87312,9.50138 1.8776,0.47449 -1.48436,10.61865 -81.4826,-10.54186 0.0129,0.99743 -33.17658,-8.79777 -73.05232,-24.24177 -43.41083,-18.64019 -26.73096,-11.99808 -12.81633,-6.94136 -6.64551,-2.53235 -15.73077,-0.79318 -17.01067,-3.27049 -1.42897,-4.3459 -2.85346,-27.52143 1.69776,-3.76304 -0.75659,-0.61366 6.80729,-13.8054 23.38433,13.66241 23.24326,12.41735 22.15448,15.05027 8.91684,4.49808 0.48115,-1.37793 1.88413,0.97313 1.10326,-1.51072 18.07826,8.61896 0.52328,1.8637 -0.35804,1.25164 12.40639,4.20345 13.1435,3.32102 20.87763,3.22072 17.63587,3.38755 8.38214,1.76179 50.07069,12.69379 0.84895,-1.88149 10.63233,2.10683 0.0178,1.37146 1.24744,-0.0162 -0.48443,1.12857 8.57003,1.82184 z m 150.58765,9.39969 38.68688,-28.18299 29.42283,7.97493 0.96412,-2.63113 34.5582,9.52993 -2.85858,10.51161 1.63455,0.97651 -3.3366,12.13887 -5.00729,18.0213 -6.33271,21.65468 -1.73512,0.89529 -80.16085,-24.15408 -14.25992,-22.13689 z"
       style="fill:none;stroke:#000000"
       id="path2"
       sodipodi:nodetypes="cccccccccccccccccccccccccccccccccccccccccccccccccccccccccccccccccccccccccccccccccccccccccccccccccccccccccccccccccccccccccccccccccccccccccccccccccccccccccccccccccccccccccccccccccccccccccccccccccccccccccccccccccccccccccccccccccccccccccccccccccccccccccccccccccccccc" />
    <path
       d="M 672.5771662130245 146.00466454849064 673.2081899093065 156.22185446052492 676.6512402841844 171.64013199810532 678.8998789529551 171.86052217399902 681.9018833158646 191.77366273721998 679.7257757862675 216.49216899243567 680.496783002458 218.22801142775265 677.6929087460119 232.9786838363966 678.4703545272696 235.21323965606854 715.2223450413545 240.72481395057937 721.1780248373104 199.4973025786204 737.6475645084558 199.53439349678465 738.3172059296658 193.415503389006 741.5557501338077 192.9996643468702 744.5199506620198 180.99034127993326 746.7669744768173 181.08608092720627 746.4234655399672 164.1314228570903 744.4323605510046 164.53118161948433 743.8087867619346 145.21084977021013 738.8205513388235 145.39984083255737 738.8012463834324 143.9036998501795 684.9077061556507 144.3492092180544 684.6791436829208 145.97324646243302 Z"
       style="fill:none;stroke:black"
       id="path4" />
    <path
       d="M 765.2811999520159 146.18114142534426 764.5430626154296 156.66538048399596 756.9701534959365 198.2877774838589 781.8812092712225 204.7005876122924 789.402869672742 207.47178431131314 788.7868686144304 227.43158413062997 787.9120512328261 227.31815277309155 783.9697737835916 250.56297645794731 794.1045572797515 252.80172391370283 819.4162787425978 251.60289484157087 854.0270525381054 236.1935074442139 854.7385776750245 233.31627078383914 818.3376368173826 187.27201602068908 816.4584242464182 186.67271484433334 808.1824605321278 193.13893119978061 805.0718704393036 193.8024814938443 799.9297259903253 162.69391176059452 801.0315424517707 161.05863370809888 791.3425258816461 154.69905996774142 783.2976938614503 150.06411234297423 774.3924889684912 146.4378535268719 765.0381403559004 146.68306968663524 Z"
       style="fill:none;stroke:black"
       id="path6" />
    <path
       d="M 641.331257938378 161.12236564099928 612.4417957412937 213.74426838354643 621.4942991906739 219.11415120726508 662.4499759128446 231.30485688890795 666.4160216934916 229.25849708821136 669.055724122042 221.11899303202247 670.6958678261176 212.86768705484891 671.3396688770574 204.75393508735044 671.2366125912649 196.77451801694446 670.2732226293529 189.80379405155045 666.5677924363089 173.39131209389876 643.3223562809604 160.72256950196197 642.5883804256791 161.8543351290751 Z"
       style="fill:none;stroke:black"
       id="path8" />
  </g>
  <ellipse
     style="color:#000000;overflow:visible;opacity:0.99;fill:#ffffff;stroke:#343c48;stroke-width:0.1;stroke-miterlimit:4;stroke-dasharray:none"
     id="path847"
     cx="768.20673"
     cy="255.67796"
     rx="6.005424"
     ry="5.8323498" />
</svg>

<?xml version="1.0" encoding="UTF-8" standalone="no"?>
<svg
   xmlns:dc="http://purl.org/dc/elements/1.1/"
   xmlns:cc="http://creativecommons.org/ns#"
   xmlns:rdf="http://www.w3.org/1999/02/22-rdf-syntax-ns#"
   xmlns:svg="http://www.w3.org/2000/svg"
   xmlns="http://www.w3.org/2000/svg"
   xmlns:sodipodi="http://sodipodi.sourceforge.net/DTD/sodipodi-0.dtd"
   xmlns:inkscape="http://www.inkscape.org/namespaces/inkscape"
   version="1.1"
   width="889.20209mm"
   height="379.57773mm"
   viewBox="0 0 889.20209 379.57773"
   id="svg12"
   sodipodi:docname="suedl-ringstr.svg"
   inkscape:version="1.0.2-2 (e86c870879, 2021-01-15)">
  <metadata
     id="metadata18">
    <rdf:RDF>
      <cc:Work
         rdf:about="">
        <dc:format>image/svg+xml</dc:format>
        <dc:type
           rdf:resource="http://purl.org/dc/dcmitype/StillImage" />
        <dc:title></dc:title>
      </cc:Work>
    </rdf:RDF>
  </metadata>
  <defs
     id="defs16">
    <marker
       style="overflow:visible;"
       id="Arrow1Lend"
       refX="0.0"
       refY="0.0"
       orient="auto"
       inkscape:stockid="Arrow1Lend"
       inkscape:isstock="true">
      <path
         transform="scale(0.8) rotate(180) translate(12.5,0)"
         style="fill-rule:evenodd;stroke:#000000;stroke-width:1pt;stroke-opacity:1;fill:#000000;fill-opacity:1"
         d="M 0.0,0.0 L 5.0,-5.0 L -12.5,0.0 L 5.0,5.0 L 0.0,0.0 z "
         id="path861" />
    </marker>
    <marker
       style="overflow:visible"
       id="Arrow1Lstart"
       refX="0.0"
       refY="0.0"
       orient="auto"
       inkscape:stockid="Arrow1Lstart"
       inkscape:isstock="true">
      <path
         transform="scale(0.8) translate(12.5,0)"
         style="fill-rule:evenodd;stroke:#000000;stroke-width:1pt;stroke-opacity:1;fill:#000000;fill-opacity:1"
         d="M 0.0,0.0 L 5.0,-5.0 L -12.5,0.0 L 5.0,5.0 L 0.0,0.0 z "
         id="path858" />
    </marker>
    <marker
       style="overflow:visible"
       id="Arrow1Lend-0"
       refX="0"
       refY="0"
       orient="auto"
       inkscape:stockid="Arrow1Lend"
       inkscape:isstock="true">
      <path
         transform="matrix(-0.8,0,0,-0.8,-10,0)"
         style="fill:#000000;fill-opacity:1;fill-rule:evenodd;stroke:#000000;stroke-width:1pt;stroke-opacity:1"
         d="M 0,0 5,-5 -12.5,0 5,5 Z"
         id="path861-7" />
    </marker>
    <marker
       style="overflow:visible"
       id="Arrow1Lend-5"
       refX="0"
       refY="0"
       orient="auto"
       inkscape:stockid="Arrow1Lend"
       inkscape:isstock="true">
      <path
         transform="matrix(-0.8,0,0,-0.8,-10,0)"
         style="fill:#000000;fill-opacity:1;fill-rule:evenodd;stroke:#000000;stroke-width:1pt;stroke-opacity:1"
         d="M 0,0 5,-5 -12.5,0 5,5 Z"
         id="path861-8" />
    </marker>
  </defs>
  <sodipodi:namedview
     pagecolor="#ffffff"
     bordercolor="#666666"
     borderopacity="1"
     objecttolerance="10"
     gridtolerance="10"
     guidetolerance="10"
     inkscape:pageopacity="0"
     inkscape:pageshadow="2"
     inkscape:window-width="1920"
     inkscape:window-height="1017"
     id="namedview14"
     showgrid="false"
     inkscape:zoom="0.34325889"
     inkscape:cx="2233.9741"
     inkscape:cy="371.38377"
     inkscape:window-x="-8"
     inkscape:window-y="-8"
     inkscape:window-maximized="1"
     inkscape:current-layer="svg12"
     inkscape:document-rotation="0"
     inkscape:document-units="mm"
     fit-margin-top="0"
     fit-margin-left="0"
     fit-margin-right="0"
     fit-margin-bottom="0"
     inkscape:snap-grids="false"
     inkscape:snap-to-guides="false" />
  <g
     id="g10"
     transform="translate(0.56805817,0.52287485)">
    <path
       d="m 601.94317,125.46813 36.8566,3.88862 -1.04055,6.37309 -35.03396,69.53566 -3.4445,3.78546 -48.73804,32.42794 -7.80401,4.34063 -47.35023,23.93096 -1.15659,-2.60373 -23.67254,12.15265 -8.5645,-15.85068 0.9725,-11.60961 -2.32452,-6.08018 18.12539,-6.96827 -0.77914,-2.3592 33.50333,-14.15023 18.46588,-9.59119 18.16,-13.95164 21.92721,-21.7316 23.50395,-25.24345 6.24437,-9.18369 0.0132,-3.80349 z m 180.65545,163.89395 -39.49595,-5.47666 -76.79827,-14.97114 5.82419,-22.3963 43.12351,6.17757 36.89427,6.88168 0.11349,-0.87436 6.25004,0.91706 -0.10545,1.49774 27.43184,3.57462 z m -426.97175,-60.07525 -16.00606,-2.78534 -22.67091,-6.81394 -0.4925,0.50518 -11.39704,-3.34379 -15.99155,-1.66308 -15.75988,-3.03773 -16.27507,-4.27799 -10.90785,-4.09821 0.3224,-3.99456 -6.35711,0.45661 -9.41742,-4.61632 2.12227,-9.50469 -4.25915,-1.3164 2.96955,-11.51088 -7.12992,-1.40383 -1.77719,7.25563 -20.27516,-4.84939 -47.13465,-26.69678 0.83267,-3.1283 -11.02954,-3.84703 3.73897,-9.89983 4.01443,-7.90823 -14.49815,-1.93144 -3.88786,17.63312 -14.01049,-2.81063 -13.70607,-8.17663 -11.750745,-11.3195 -0.666199,-12.83535 -2.614811,0.40811 -0.960368,12.48241 -1.226358,1.63704 23.211401,19.5253 19.08956,9.60304 -9.18187,32.66586 0.4572,15.95555 -10.21586,10.73227 -14.486578,-1.0586 0.07767,-3.61729 -18.509271,-3.37551 -0.474622,1.87666 -64.044697,-12.63395 -0.197484,3.99295 L 1.3815237,188.12441 0,196.99604 l 10.757286,2.1045 6.55172,4.90265 95.924044,17.58141 5.76906,2.29427 1.80808,4.71507 2.24114,28.40228 18.57052,-1.48841 -2.81627,-34.25568 27.54412,-2.22845 4.62364,0.56342 51.20998,23.52652 0.7436,-0.38375 40.03777,18.3099 63.9103,21.61693 0.49088,-0.62986 11.29965,5.46499 27.30873,8.49973 55.89078,9.37672 0.46504,-2.6247 8.50833,1.88504 8.14863,3.01199 5.80599,5.16222 4.83066,6.92064 2.36811,9.44649 1.71693,7.33503 -1.98617,0.7739 4.52632,41.21686 16.69103,-2.08645 -2.73501,-28.14664 34.25223,-4.43343 -1.23566,-8.71297 -33.99795,4.80425 -4.2804,-31.86761 16.1051,-8.81261 -0.78398,-2.73324 68.66864,-34.80608 13.65879,23.89044 85.1634,25.08706 -12.4029,44.3036 9.13349,2.00199 12.45524,-49.91571 8.28912,-34.39924 76.8127,16.09324 2.48038,-1.15426 32.74213,4.19198 -0.63109,9.11117 4.87782,0.93476 0.0804,6.23392 -1.59432,2.14042 -2.15788,16.48809 9.74756,1.24613 0.40218,-36.54204 1.22653,-1.63688 -0.0672,-25.2875 24.31854,-0.0893 7.47175,-1.09379 7.21263,-1.83864 31.49696,-14.99517 3.49122,-0.16963 11.25152,11.45227 13.56769,-12.14564 -58.52553,-78.3062 16.59384,-9.69072 -3.97957,-8.67772 7.1496,-16.4276 -23.27295,4.53932 -15.22227,-0.0534 -0.0804,-6.23392 -4.11502,0.17769 -0.30513,5.36599 -67.47401,-7.73497 0.88053,-9.11439 -8.24293,-0.64195 -1.00688,8.99132 -17.615,-1.76809 2.42417,-24.84638 -12.61072,-0.71029 -1.68852,23.83932 -23.35981,-2.19269 -2.04103,-3.46524 -0.92153,-3.72909 -14.62758,-2.30525 -1.90342,-2.46943 8.02196,-74.424194 2.87244,0.212338 L 672.54748,8.4618928 664.7921,6.9408631 664.95946,0.57904808 651.85111,0 l 0.1788,13.839296 -11.63351,103.899834 -20.10678,-1.48624 -4.62368,-0.56379 -14.13184,-2.5609 1.62395,-9.49811 -5.63457,-1.54832 -2.51168,8.38728 -4.93506,4.30351 -11.46702,0.89632 -0.12534,9.60345 16.35308,0.66167 -0.83113,12.91709 -1.05098,5.56269 -2.31375,4.39436 -6.03355,6.18819 -5.45173,2.9385 1.15173,2.22971 -15.88737,16.04205 -16.42176,13.30563 -0.0957,2.24582 -12.20939,11.00663 -12.98201,9.14617 -12.51849,6.39682 -23.58034,9.6574 -13.782,5.16626 -14.28418,4.9234 -1.39318,-1.60307 -3.09201,-17.16847 -11.30326,3.88726 3.58294,16.53862 -10.44617,2.6292 -32.4657,-2.07364 -16.97554,-4.84658 z m 53.74471,17.0111 26.09243,1.28327 10.21121,-1.50386 4.40728,22.38882 -1.87312,9.50138 1.8776,0.47449 -1.48436,10.61865 -81.4826,-10.54186 0.0129,0.99743 -33.17658,-8.79777 -73.05232,-24.24177 -43.41083,-18.64019 -26.73096,-11.99808 -12.81633,-6.94136 -6.64551,-2.53235 -15.73077,-0.79318 -17.01067,-3.27049 -1.42897,-4.3459 -2.85346,-27.52143 1.69776,-3.76304 -0.75659,-0.61366 6.80729,-13.8054 23.38433,13.66241 23.24326,12.41735 22.15448,15.05027 8.91684,4.49808 0.48115,-1.37793 1.88413,0.97313 1.10326,-1.51072 18.07826,8.61896 0.52328,1.8637 -0.35804,1.25164 12.40639,4.20345 13.1435,3.32102 20.87763,3.22072 17.63587,3.38755 8.38214,1.76179 50.07069,12.69379 0.84895,-1.88149 10.63233,2.10683 0.0178,1.37146 1.24744,-0.0162 -0.48443,1.12857 8.57003,1.82184 z m 150.58765,9.39969 38.68688,-28.18299 29.42283,7.97493 0.96412,-2.63113 34.5582,9.52993 -2.85858,10.51161 1.63455,0.97651 -3.3366,12.13887 -5.00729,18.0213 -6.33271,21.65468 -1.73512,0.89529 -80.16085,-24.15408 -14.25992,-22.13689 z"
       style="fill:none;stroke:#000000"
       id="path2"
       sodipodi:nodetypes="cccccccccccccccccccccccccccccccccccccccccccccccccccccccccccccccccccccccccccccccccccccccccccccccccccccccccccccccccccccccccccccccccccccccccccccccccccccccccccccccccccccccccccccccccccccccccccccccccccccccccccccccccccccccccccccccccccccccccccccccccccccccccccccccccccccc" />
    <path
       d="m 672.57717,146.00466 0.63102,10.21719 3.44305,15.41828 2.24864,0.22039 3.002,19.91314 -2.1761,24.71851 0.771,1.73584 -2.80387,14.75067 0.77744,2.23456 36.752,5.51157 5.95567,-41.22751 16.46954,0.0371 0.66965,-6.11889 3.23854,-0.41584 2.9642,-12.00932 2.24702,0.0957 -0.3435,-16.95466 -1.99111,0.39976 -0.62357,-19.32033 -4.98824,0.18899 -0.0193,-1.49614 -53.89354,0.44551 -0.22857,1.62404 z"
       style="fill:none;stroke:#000000"
       id="path4" />
    <path
       d="m 765.2812,146.18114 -0.73814,10.48424 -7.57291,41.6224 24.91106,6.41281 7.52166,2.77119 -0.616,19.9598 -0.87482,-0.11343 -3.94228,23.24483 10.13479,2.23874 25.31172,-1.19883 34.61077,-15.40938 0.71153,-2.87724 -36.40094,-46.04425 -1.87922,-0.59931 -8.27596,6.46622 -3.11059,0.66355 -5.14214,-31.10857 1.10181,-1.63528 -9.68901,-6.35957 -8.04484,-4.63495 -8.9052,-3.62626 -9.35435,0.24522 z"
       style="fill:none;stroke:#000000"
       id="path6" />
    <path
       d="m 641.33126,161.12237 -28.88946,52.6219 9.0525,5.36988 40.95568,12.19071 3.96604,-2.04636 2.6397,-8.13951 1.64015,-8.2513 0.6438,-8.11375 -0.10306,-7.97942 -0.96339,-6.97073 -3.70543,-16.41248 -23.24543,-12.66874 -0.73398,1.13177 z"
       style="fill:none;stroke:#000000"
       id="path8" />
  </g>
  <ellipse
     style="color:#000000;overflow:visible;opacity:0.99;fill:#ffffff;stroke:#343c48;stroke-width:0.1;stroke-miterlimit:4;stroke-dasharray:none"
     id="path847"
     cx="745.3382"
     cy="230.58412"
     rx="6.005424"
     ry="5.8323498" />
  <path
     style="fill:none;fill-rule:evenodd;stroke:#b0b0b0;stroke-width:6.5;stroke-linecap:butt;stroke-linejoin:miter;stroke-miterlimit:4;stroke-dasharray:none;stroke-opacity:1"
     d="M 660.0133,16.709637 647.29512,134.72393 c -0.99854,9.26565 -34.06955,68.52531 -37.79649,73.14366 -5.5622,6.89257 -34.03601,29.09195 -52.25463,39.24458 -22.89252,12.75724 -80.91621,43.15639 -97.65426,48.52156 -9.32706,2.98967 -89.42396,-9.53012 -89.42396,-9.53012"
     id="path835"
     sodipodi:nodetypes="cssssc" />
  <path
     style="font-variation-settings:normal;opacity:1;vector-effect:none;fill:none;fill-opacity:1;fill-rule:evenodd;stroke:#b0b0b0;stroke-width:6.5;stroke-linecap:butt;stroke-linejoin:miter;stroke-miterlimit:4;stroke-dasharray:none;stroke-dashoffset:0;stroke-opacity:1;stop-color:#000000;stop-opacity:1"
     d="m 598.9102,217.36509 c 0,0 51.31849,17.00066 70.12227,20.81592 18.80375,3.81525 95.38142,19.3488 113.09509,19.89383 17.71369,0.54504 35.15487,2.18015 41.42279,-0.54503 6.26793,-2.72518 34.3373,-14.98851 35.97242,-17.16866 5.86136,-7.81515 0.54503,-16.62361 0.54503,-16.62361 L 809.92445,156.153 c 0,0 -0.27253,-4.08778 -16.89614,-10.08318 -16.62364,-5.9954 -38.15257,-7.90303 -38.15257,-7.90303 L 649.68368,129.4462"
     id="path837"
     sodipodi:nodetypes="cssssccscc" />
  <path
     style="fill:none;fill-rule:evenodd;stroke:#000000;stroke-width:0.265;stroke-linecap:butt;stroke-linejoin:miter;stroke-opacity:1;stroke-miterlimit:4;stroke-dasharray:none;marker-end:url(#Arrow1Lend)"
     d="m 705.66575,245.11383 27.74874,5.39559"
     id="path856" />
  <path
     style="fill:none;fill-rule:evenodd;stroke:#000000;stroke-width:0.265;stroke-linecap:butt;stroke-linejoin:miter;stroke-miterlimit:4;stroke-dasharray:none;stroke-opacity:1;marker-end:url(#Arrow1Lend-0)"
     d="M 745.49524,136.30638 717.26948,134.7536"
     id="path856-9" />
  <path
     style="fill:none;fill-rule:evenodd;stroke:#000000;stroke-width:0.265;stroke-linecap:butt;stroke-linejoin:miter;stroke-miterlimit:4;stroke-dasharray:none;stroke-opacity:1;marker-end:url(#Arrow1Lend-5)"
     d="m 644.28608,145.71639 -13.16017,25.01829"
     id="path856-7" />
</svg>
